Newaita-dark/actions/22/object-rotate-right.svg

<?xml version="1.0" encoding="UTF-8"?>
<svg xmlns="http://www.w3.org/2000/svg" xmlns:xlink="http://www.w3.org/1999/xlink" width="22pt" height="22pt" viewBox="0 0 22 22" version="1.1">
<g id="surface1">
<path style=" stroke:none;fill-rule:nonzero;fill:rgb(47.058824%,56.470591%,61.176473%);fill-opacity:1;" d="M 3.636719 11.085938 C 3.636719 7.054688 6.882812 3.808594 10.914062 3.808594 L 10.914062 5.628906 C 7.890625 5.628906 5.457031 8.0625 5.457031 11.085938 Z M 3.636719 11.085938 "/>
<path style=" stroke:none;fill-rule:nonzero;fill:rgb(74.117649%,74.117649%,74.117649%);fill-opacity:1;" d="M 18.648438 12.90625 C 19.402344 12.90625 20.011719 12.296875 20.011719 11.542969 L 20.011719 3.355469 C 20.011719 2.597656 19.402344 1.992188 18.648438 1.992188 L 14.097656 1.992188 C 13.34375 1.992188 12.734375 2.597656 12.734375 3.355469 L 12.734375 11.542969 C 12.734375 12.296875 13.34375 12.90625 14.097656 12.90625 Z M 17.738281 11.542969 L 15.007812 11.542969 C 14.503906 11.542969 14.097656 11.136719 14.097656 10.632812 L 14.097656 4.265625 C 14.097656 3.761719 14.503906 3.355469 15.007812 3.355469 L 17.738281 3.355469 C 18.242188 3.355469 18.648438 3.761719 18.648438 4.265625 L 18.648438 10.632812 C 18.648438 11.136719 18.242188 11.542969 17.738281 11.542969 Z M 17.738281 11.542969 "/>
<path style=" stroke:none;fill-rule:nonzero;fill:rgb(74.117649%,74.117649%,74.117649%);fill-opacity:1;" d="M 12.734375 14.269531 C 12.734375 13.515625 12.125 12.90625 11.371094 12.90625 L 3.183594 12.90625 C 2.425781 12.90625 1.820312 13.515625 1.820312 14.269531 L 1.820312 18.820312 C 1.820312 19.574219 2.425781 20.183594 3.183594 20.183594 L 11.371094 20.183594 C 12.125 20.183594 12.734375 19.574219 12.734375 18.820312 Z M 11.371094 15.179688 L 11.371094 17.910156 C 11.371094 18.414062 10.964844 18.820312 10.460938 18.820312 L 4.09375 18.820312 C 3.589844 18.820312 3.183594 18.414062 3.183594 17.910156 L 3.183594 15.179688 C 3.183594 14.675781 3.589844 14.269531 4.09375 14.269531 L 10.460938 14.269531 C 10.964844 14.269531 11.371094 14.675781 11.371094 15.179688 Z M 11.371094 15.179688 "/>
</g>
</svg>

<svg xmlns="http://www.w3.org/2000/svg" width="22pt" height="22pt" viewBox="0 0 22 22"><path d="M3.637 11.086a7.262 7.262 0 0 1 7.277-7.277v1.82a5.445 5.445 0 0 0-5.457 5.457zm0 0" fill="#78909c"/><path d="M18.648 12.906c.754 0 1.364-.61 1.364-1.363V3.355a1.36 1.36 0 0 0-1.364-1.363h-4.55a1.36 1.36 0 0 0-1.364 1.363v8.188c0 .754.61 1.363 1.364 1.363zm-.91-1.363h-2.73a.909.909 0 0 1-.91-.91V4.266c0-.504.406-.91.91-.91h2.73c.504 0 .91.406.91.91v6.367c0 .504-.406.91-.91.91zm0 0M12.734 14.27c0-.754-.609-1.364-1.363-1.364H3.184A1.36 1.36 0 0 0 1.82 14.27v4.55a1.36 1.36 0 0 0 1.364 1.364h8.187c.754 0 1.363-.61 1.363-1.364zm-1.363.91v2.73c0 .504-.406.91-.91.91H4.094a.909.909 0 0 1-.91-.91v-2.73c0-.504.406-.91.91-.91h6.367c.504 0 .91.406.91.91zm0 0" fill="#bdbdbd"/></svg>
